X: 8371
T: Courthouse
R: reel
M: 4/4
K: Edorian
|:EFGA B2AF|DEFG A2Fd|DEzc dEcE|DEcd BAGF|
EFGA B2AF|DEFG A2Fd|DEzc dEcE|DEFG E3z:|
|:g3a gfeg|f3g fedc|defg aABc|defg agfa|
g3a gfeg|f3g feb2|bagb agfd|Bc(3dcB e3z:|

